Icons/Colored/Sea.svg

<svg xmlns="http://www.w3.org/2000/svg" xml:space="preserve" fill-rule="evenodd" stroke-linejoin="round" stroke-miterlimit="1" clip-rule="evenodd" viewBox="0 0 64 64">
  <g id="blue">
    <path fill="#4f8198" stroke="#4f8198" stroke-width="2.06px" d="m0 56.027 14.168-3.902 13.586 3.141 14.75-4.289 11.531 3.75L64 50.824V64H0v-7.973Z"/>
    <path fill="#73a7c7" stroke="#73a7c7" stroke-linecap="square" stroke-width="2.06px" d="m0 44.781 15.867-2.601 12.422 3.136 14.57-4.132 10.727 4.207L64 41.414v9.41c-3.195 2.703-6.531 3.852-9.965 3.903-4.949-.2-8.73-1.508-11.531-3.75-4.684 2.429-9.59 3.898-14.75 4.289-5.441-.071-10.051-1.032-13.586-3.141C8.625 55.332 3.875 56.699 0 56.027V44.781Z"/>
    <path fill="#4bc3f1" stroke="#4bc3f1" stroke-linecap="square" stroke-width="2px" d="M0 36.605c3.25 1.434 8.621.719 17.117-3.152 5.946 3.012 10.028 3.813 12.871 3.152 4.602-.457 9.883-2.496 13.766-4.375 4.184 2.657 7.734 3.59 10.726 2.985 3.305-.246 6.704-1.75 9.52-3.215v9.414c-2.254 2.582-5.777 3.84-10.414 3.977-4.145-.524-7.77-1.848-10.727-4.207-4.472 2.254-9.379 3.511-14.57 4.132-5.187.844-9.383-.105-12.422-3.136C8.465 45.195 3.59 45.641 0 44.781v-8.176Z"/>
  </g>
</svg>

<?xml version="1.0" encoding="UTF-8" standalone="no"?>
<!DOCTYPE svg PUBLIC "-//W3C//DTD SVG 1.1//EN" "http://www.w3.org/Graphics/SVG/1.1/DTD/svg11.dtd">
<svg width="100%" height="100%" viewBox="0 0 64 64" version="1.1" xmlns="http://www.w3.org/2000/svg" xmlns:xlink="http://www.w3.org/1999/xlink" xml:space="preserve" xmlns:serif="http://www.serif.com/" style="fill-rule:evenodd;clip-rule:evenodd;stroke-linejoin:round;stroke-miterlimit:1;">
    <g id="surface1">
        <path d="M0,56.027L14.168,52.125L27.754,55.266L42.504,50.977L54.035,54.727L64,50.824L64,64L0,64L0,56.027Z" style="fill:#4f8198;stroke:#4f8198;stroke-width:2.06px;"/>
        <path d="M0,44.781L15.867,42.18L28.289,45.316L42.859,41.184L53.586,45.391L64,41.414L64,50.824C60.805,53.527 57.469,54.676 54.035,54.727C49.086,54.527 45.305,53.219 42.504,50.977C37.82,53.406 32.914,54.875 27.754,55.266C22.313,55.195 17.703,54.234 14.168,52.125C8.625,55.332 3.875,56.699 0,56.027L0,44.781Z" style="fill:#73a7c7;stroke:#73a7c7;stroke-width:2.06px;stroke-linecap:square;"/>
        <path d="M0,36.605C3.25,38.039 8.621,37.324 17.117,33.453C23.063,36.465 27.145,37.266 29.988,36.605C34.59,36.148 39.871,34.109 43.754,32.23C47.938,34.887 51.488,35.82 54.48,35.215C57.785,34.969 61.184,33.465 64,32L64,41.414C61.746,43.996 58.223,45.254 53.586,45.391C49.441,44.867 45.816,43.543 42.859,41.184C38.387,43.438 33.48,44.695 28.289,45.316C23.102,46.16 18.906,45.211 15.867,42.18C8.465,45.195 3.59,45.641 0,44.781L0,36.605Z" style="fill:#4bc3f1;stroke:#4bc3f1;stroke-width:2px;stroke-linecap:square;"/>
    </g>
</svg>
